resources/wheatstone.svg

<?xml version='1.0' encoding='UTF-8'?>
<!-- This file was generated by dvisvgm 2.1.3 -->
<svg height='173.658pt' version='1.1' viewBox='-57.0563 -72.005 269.213 173.658' width='269.213pt' xmlns='http://www.w3.org/2000/svg' xmlns:xlink='http://www.w3.org/1999/xlink'>
<defs>
<font horiz-adv-x='0' id='cmsy10'>
<font-face ascent='775' descent='960' font-family='cmsy10' units-per-em='1000'/>
<glyph d='M659 230C676 230 694 230 694 250S676 270 659 270H118C101 270 83 270 83 250S101 230 118 230H659Z' glyph-name='minus' horiz-adv-x='777' unicode='−' vert-adv-y='777'/>
</font>
<font horiz-adv-x='0' id='cmbx10'>
<font-face ascent='750' descent='250' font-family='cmbx10' units-per-em='1000'/>
<glyph d='M740 617C746 630 750 639 823 639H842V686C804 685 756 683 729 683C689 683 637 683 598 686V639C607 639 686 639 686 627C686 623 683 618 682 615L480 160L267 639H361V686C323 683 227 683 184 683C145 683 61 683 26 686V639H118L394 18C402 0 406 -8 434 -8C450 -8 463 -8 474 16L740 617Z' glyph-name='V' horiz-adv-x='869' unicode='V' vert-adv-y='869'/>
</font>
<font horiz-adv-x='0' id='cmr10'>
<font-face ascent='750' descent='250' font-family='cmr10' units-per-em='1000'/>
<glyph d='M409 230H688C702 230 721 230 721 250S702 270 688 270H409V550C409 564 409 583 389 583S369 564 369 550V270H89C75 270 56 270 56 250S75 230 89 230H369V-50C369 -64 369 -83 389 -83S409 -64 409 -50V230Z' glyph-name='plus' horiz-adv-x='777' unicode='+' vert-adv-y='777'/>
<glyph d='M294 640C294 664 294 666 271 666C209 602 121 602 89 602V571C109 571 168 571 220 597V79C220 43 217 31 127 31H95V0C130 3 217 3 257 3S384 3 419 0V31H387C297 31 294 42 294 79V640Z' glyph-name='one' horiz-adv-x='500' unicode='1' vert-adv-y='500'/>
<glyph d='M127 77L233 180C389 318 449 372 449 472C449 586 359 666 237 666C124 666 50 574 50 485C50 429 100 429 103 429C120 429 155 441 155 482C155 508 137 534 102 534C94 534 92 534 89 533C112 598 166 635 224 635C315 635 358 554 358 472C358 392 308 313 253 251L61 37C50 26 50 24 50 0H421L449 174H424C419 144 412 100 402 85C395 77 329 77 307 77H127Z' glyph-name='two' horiz-adv-x='500' unicode='2' vert-adv-y='500'/>
<glyph d='M290 352C372 379 430 449 430 528C430 610 342 666 246 666C145 666 69 606 69 530C69 497 91 478 120 478C151 478 171 500 171 529C171 579 124 579 109 579C140 628 206 641 242 641C283 641 338 619 338 529C338 517 336 459 310 415C280 367 246 364 221 363C213 362 189 360 182 360C174 359 167 358 167 348C167 337 174 337 191 337H235C317 337 354 269 354 171C354 35 285 6 241 6C198 6 123 23 88 82C123 77 154 99 154 137C154 173 127 193 98 193C74 193 42 179 42 135C42 44 135 -22 244 -22C366 -22 457 69 457 171C457 253 394 331 290 352Z' glyph-name='three' horiz-adv-x='500' unicode='3' vert-adv-y='500'/>
<glyph d='M294 165V78C294 42 292 31 218 31H197V0C238 3 290 3 332 3S427 3 468 0V31H447C373 31 371 42 371 78V165H471V196H371V651C371 671 371 677 355 677C346 677 343 677 335 665L28 196V165H294ZM300 196H56L300 569V196Z' glyph-name='four' horiz-adv-x='500' unicode='4' vert-adv-y='500'/>
<glyph d='M224 353V612C224 635 224 647 246 650C256 652 285 652 305 652C395 652 507 648 507 503C507 434 483 353 335 353H224ZM435 340C532 364 610 425 610 503C610 599 496 683 349 683H35V652H59C136 652 138 641 138 605V78C138 42 136 31 59 31H35V0C71 3 142 3 181 3S291 3 327 0V31H303C226 31 224 42 224 78V331H339C355 331 397 331 432 297C470 261 470 230 470 163C470 98 470 58 511 20C552 -16 607 -22 637 -22C715 -22 732 60 732 88C732 94 732 105 719 105C708 105 708 96 707 89C701 18 666 0 641 0C592 0 584 51 570 144L557 224C539 288 490 321 435 340Z' glyph-name='R' horiz-adv-x='736' unicode='R' vert-adv-y='736'/>
</font>
</defs>
<style type='text/css'>
<![CDATA[
text.f0 {font-family:cmbx10;font-size:9.96264px}
text.f1 {font-family:cmsy10;font-size:9.96264px}
text.f2 {font-family:cmr10;font-size:9.96264px}
]]>
</style>
<g id='page1'>
<path d='M-44.7539 99.8633V99.6641M-44.7539 99.8633V26.7305M-44.7539 2.918V-70.215M-44.7539 -70.016V-70.215H125.328L125.187 -70.074M125.328 -70.215L94.035 -38.922M71.582 -16.473L40.2891 14.8242M40.4297 14.6836L40.2891 14.8242L40.4297 14.9648M40.2891 14.8242L71.582 46.1211M94.035 68.5703L125.328 99.8633M125.187 99.7227L125.328 99.8633' fill='none' stroke='#000000' stroke-width='0.399994'/>
<path d='M-56.6563 14.8242C-56.6563 21.3984 -51.3281 26.7305 -44.7539 26.7305C-38.1758 26.7305 -32.8477 21.3984 -32.8477 14.8242C-32.8477 8.25 -38.1758 2.918 -44.7539 2.918C-51.3281 2.918 -56.6563 8.25 -56.6563 14.8242Z' fill='none' stroke='#000000' stroke-miterlimit='10.0375' stroke-width='0.799989'/>
<text class='f1' transform='matrix(-1 0 0 -1 -85.6296 107.186)' x='-44.752' y='99.865'>−</text>
<text class='f2' transform='matrix(-1 0 0 -1 -85.6296 117.212)' x='-44.752' y='99.865'>+</text>
<path d='M67.375 -20.68L89.824 -43.129L98.242 -34.711L75.793 -12.262Z' fill='none' stroke='#000000' stroke-miterlimit='10.0375' stroke-width='0.799989'/>
<path d='M126.914 -70.215C126.914 -71.094 126.207 -71.805 125.328 -71.805C124.453 -71.805 123.742 -71.094 123.742 -70.215C123.742 -69.34 124.453 -68.629 125.328 -68.629C126.207 -68.629 126.914 -69.34 126.914 -70.215Z'/>
<path d='M126.914 -70.215C126.914 -71.094 126.207 -71.805 125.328 -71.805C124.453 -71.805 123.742 -71.094 123.742 -70.215C123.742 -69.34 124.453 -68.629 125.328 -68.629C126.207 -68.629 126.914 -69.34 126.914 -70.215Z' fill='none' stroke='#000000' stroke-miterlimit='10.0375' stroke-width='0.399994'/>
<path d='M41.875 14.8242C41.875 13.9492 41.1641 13.2383 40.2891 13.2383C39.4102 13.2383 38.7031 13.9492 38.7031 14.8242S39.4102 16.4102 40.2891 16.4102C41.1641 16.4102 41.875 15.6992 41.875 14.8242Z'/>
<path d='M41.875 14.8242C41.875 13.9492 41.1641 13.2383 40.2891 13.2383C39.4102 13.2383 38.7031 13.9492 38.7031 14.8242S39.4102 16.4102 40.2891 16.4102C41.1641 16.4102 41.875 15.6992 41.875 14.8242Z' fill='none' stroke='#000000' stroke-miterlimit='10.0375' stroke-width='0.399994'/>
<text class='f2' transform='matrix(0.7071 -0.7071 0.7071 0.7071 51.6973 -113.387)' x='-44.752' y='99.865'>R<tspan x='-37.4184'>1</tspan>
</text>
<path d='M89.824 72.7773L67.375 50.3281L75.793 41.9102L98.242 64.3594Z' fill='none' stroke='#000000' stroke-miterlimit='10.0375' stroke-width='0.799989'/>
<path d='M41.875 14.8242C41.875 13.9492 41.1641 13.2383 40.2891 13.2383C39.4102 13.2383 38.7031 13.9492 38.7031 14.8242S39.4102 16.4102 40.2891 16.4102C41.1641 16.4102 41.875 15.6992 41.875 14.8242Z'/>
<path d='M41.875 14.8242C41.875 13.9492 41.1641 13.2383 40.2891 13.2383C39.4102 13.2383 38.7031 13.9492 38.7031 14.8242S39.4102 16.4102 40.2891 16.4102C41.1641 16.4102 41.875 15.6992 41.875 14.8242Z' fill='none' stroke='#000000' stroke-miterlimit='10.0375' stroke-width='0.399994'/>
<path d='M126.914 99.8633C126.914 98.9883 126.207 98.2773 125.328 98.2773C124.453 98.2773 123.742 98.9883 123.742 99.8633C123.742 100.742 124.453 101.453 125.328 101.453C126.207 101.453 126.914 100.742 126.914 99.8633Z'/>
<path d='M126.914 99.8633C126.914 98.9883 126.207 98.2773 125.328 98.2773C124.453 98.2773 123.742 98.9883 123.742 99.8633C123.742 100.742 124.453 101.453 125.328 101.453C126.207 101.453 126.914 100.742 126.914 99.8633Z' fill='none' stroke='#000000' stroke-miterlimit='10.0375' stroke-width='0.399994'/>
<text class='f2' transform='matrix(0.7071 0.7071 -0.7071 0.7071 188.377 6.357)' x='-44.752' y='99.865'>R<tspan x='-37.4184'>3</tspan>
</text>
<path d='M210.371 14.8242L210.227 14.6836M210.371 14.8242L179.074 -16.473M156.625 -38.922L125.328 -70.215M125.469 -70.074L125.328 -70.215' fill='none' stroke='#000000' stroke-miterlimit='10.0375' stroke-width='0.399994'/>
<path d='M160.555 -42.848L183.004 -20.398L175.145 -12.543L152.695 -34.992Z' fill='none' stroke='#000000' stroke-miterlimit='10.0375' stroke-width='0.799989'/>
<path d='M163.641 -12.262L171.238 -40.129' fill='none' stroke='#000000' stroke-miterlimit='10.0375' stroke-width='0.799989'/>
<path d='M172.059 -43.1289C171.469 -41.9492 170.352 -39.832 168.82 -38.6406C170.535 -39.5156 171.535 -39.2422 172.57 -37.6172C171.856 -39.4257 171.969 -41.8125 172.059 -43.1289Z'/>
<path d='M211.957 14.8242C211.957 13.9492 211.246 13.2383 210.371 13.2383C209.492 13.2383 208.781 13.9492 208.781 14.8242S209.492 16.4102 210.371 16.4102C211.246 16.4102 211.957 15.6992 211.957 14.8242Z'/>
<path d='M211.957 14.8242C211.957 13.9492 211.246 13.2383 210.371 13.2383C209.492 13.2383 208.781 13.9492 208.781 14.8242S209.492 16.4102 210.371 16.4102C211.246 16.4102 211.957 15.6992 211.957 14.8242Z' fill='none' stroke='#000000' stroke-miterlimit='10.0375' stroke-width='0.399994'/>
<path d='M126.914 -70.215C126.914 -71.094 126.207 -71.805 125.328 -71.805C124.453 -71.805 123.742 -71.094 123.742 -70.215C123.742 -69.34 124.453 -68.629 125.328 -68.629C126.207 -68.629 126.914 -69.34 126.914 -70.215Z'/>
<path d='M126.914 -70.215C126.914 -71.094 126.207 -71.805 125.328 -71.805C124.453 -71.805 123.742 -71.094 123.742 -70.215C123.742 -69.34 124.453 -68.629 125.328 -68.629C126.207 -68.629 126.914 -69.34 126.914 -70.215Z' fill='none' stroke='#000000' stroke-miterlimit='10.0375' stroke-width='0.399994'/>
<text class='f2' transform='matrix(0.7071 0.7071 -0.7071 0.7071 247.367 -52.6334)' x='-44.752' y='99.865'>R<tspan x='-37.4184'>2</tspan>
</text>
<path d='M125.328 99.8633L125.469 99.7227M125.328 99.8633L156.625 68.5703M179.074 46.1211L210.371 14.8242M210.227 14.9648L210.371 14.8242' fill='none' stroke='#000000' stroke-miterlimit='10.0375' stroke-width='0.399994'/>
<path d='M183.281 50.3281L160.832 72.7773L152.414 64.3594L174.863 41.9102Z' fill='none' stroke='#000000' stroke-miterlimit='10.0375' stroke-width='0.799989'/>
<path d='M126.914 99.8633C126.914 98.9883 126.207 98.2773 125.328 98.2773C124.453 98.2773 123.742 98.9883 123.742 99.8633C123.742 100.742 124.453 101.453 125.328 101.453C126.207 101.453 126.914 100.742 126.914 99.8633Z'/>
<path d='M126.914 99.8633C126.914 98.9883 126.207 98.2773 125.328 98.2773C124.453 98.2773 123.742 98.9883 123.742 99.8633C123.742 100.742 124.453 101.453 125.328 101.453C126.207 101.453 126.914 100.742 126.914 99.8633Z' fill='none' stroke='#000000' stroke-miterlimit='10.0375' stroke-width='0.399994'/>
<path d='M211.957 14.8242C211.957 13.9492 211.246 13.2383 210.371 13.2383C209.492 13.2383 208.781 13.9492 208.781 14.8242S209.492 16.4102 210.371 16.4102C211.246 16.4102 211.957 15.6992 211.957 14.8242Z'/>
<path d='M211.957 14.8242C211.957 13.9492 211.246 13.2383 210.371 13.2383C209.492 13.2383 208.781 13.9492 208.781 14.8242S209.492 16.4102 210.371 16.4102C211.246 16.4102 211.957 15.6992 211.957 14.8242Z' fill='none' stroke='#000000' stroke-miterlimit='10.0375' stroke-width='0.399994'/>
<text class='f2' transform='matrix(0.7071 -0.7071 0.7071 0.7071 116.862 -48.2232)' x='-44.752' y='99.865'>R<tspan x='-37.4184'>4</tspan>
</text>
<path d='M125.328 99.8633V99.8633H-44.7539' fill='none' stroke='#000000' stroke-miterlimit='10.0375' stroke-width='0.399994'/>
<path d='M40.2891 14.8242H40.4883M40.2891 14.8242H113.422M137.234 14.8242H210.371M210.172 14.8242H210.371' fill='none' stroke='#000000' stroke-miterlimit='10.0375' stroke-width='0.399994'/>
<path d='M113.422 14.8242H114.613M136.043 14.8242H137.234' fill='none' stroke='#000000' stroke-miterlimit='10.0375' stroke-width='0.399994'/>
<path d='M136.043 14.8242C136.043 8.9063 131.246 4.1094 125.328 4.1094C119.41 4.1094 114.613 8.9063 114.613 14.8242C114.613 20.7422 119.41 25.5391 125.328 25.5391C131.246 25.5391 136.043 20.7422 136.043 14.8242Z' fill='none' stroke='#000000' stroke-miterlimit='10.0375' stroke-width='0.799989'/>
<path d='M113.422 26.7305L134.699 5.4531' fill='none' stroke='#000000' stroke-miterlimit='10.0375' stroke-width='0.399994'/>
<path d='M137.234 2.91796C136.343 3.53125 134.699 4.32813 133.359 4.67969L135.472 6.79297C135.824 5.45313 136.625 3.8125 137.234 2.91796'/>
<text class='f0' transform='matrix(1 0 0 1 165.67 -81.6226)' x='-44.752' y='99.865'>V</text>
</g>
</svg>

<svg viewBox="-57.0563 -72.005 269.213 173.658" xmlns="http://www.w3.org/2000/svg"><defs><font horiz-adv-x="0" id="cmsy10"><font-face ascent="775" descent="960" font-family="cmsy10"/><glyph d="M659 230c17 0 35 0 35 20s-18 20-35 20H118c-17 0-35 0-35-20s18-20 35-20h541z" glyph-name="minus" horiz-adv-x="777" unicode="−" vert-adv-y="777"/></font><font horiz-adv-x="0" id="cmbx10"><font-face ascent="750" descent="250" font-family="cmbx10"/><glyph d="M740 617c6 13 10 22 83 22h19v47c-38-1-86-3-113-3-40 0-92 0-131 3v-47c9 0 88 0 88-12 0-4-3-9-4-12L480 160 267 639h94v47c-38-3-134-3-177-3-39 0-123 0-158 3v-47h92L394 18c8-18 12-26 40-26 16 0 29 0 40 24l266 601z" glyph-name="V" horiz-adv-x="869" unicode="V" vert-adv-y="869"/></font><font horiz-adv-x="0" id="cmr10"><font-face ascent="750" descent="250" font-family="cmr10"/><glyph d="M409 230h279c14 0 33 0 33 20s-19 20-33 20H409v280c0 14 0 33-20 33s-20-19-20-33V270H89c-14 0-33 0-33-20s19-20 33-20h280V-50c0-14 0-33 20-33s20 19 20 33v280z" glyph-name="plus" horiz-adv-x="777" unicode="+" vert-adv-y="777"/><glyph d="M294 640c0 24 0 26-23 26-62-64-150-64-182-64v-31c20 0 79 0 131 26V79c0-36-3-48-93-48H95V0c35 3 122 3 162 3s127 0 162-3v31h-32c-90 0-93 11-93 48v561z" glyph-name="one" horiz-adv-x="500" unicode="1" vert-adv-y="500"/><glyph d="M127 77l106 103c156 138 216 192 216 292 0 114-90 194-212 194-113 0-187-92-187-181 0-56 50-56 53-56 17 0 52 12 52 53 0 26-18 52-53 52-8 0-10 0-13-1 23 65 77 102 135 102 91 0 134-81 134-163 0-80-50-159-105-221L61 37C50 26 50 24 50 0h371l28 174h-25c-5-30-12-74-22-89-7-8-73-8-95-8H127z" glyph-name="two" horiz-adv-x="500" unicode="2" vert-adv-y="500"/><glyph d="M290 352c82 27 140 97 140 176 0 82-88 138-184 138-101 0-177-60-177-136 0-33 22-52 51-52 31 0 51 22 51 51 0 50-47 50-62 50 31 49 97 62 133 62 41 0 96-22 96-112 0-12-2-70-28-114-30-48-64-51-89-52-8-1-32-3-39-3-8-1-15-2-15-12 0-11 7-11 24-11h44c82 0 119-68 119-166C354 35 285 6 241 6 198 6 123 23 88 82c35-5 66 17 66 55 0 36-27 56-56 56-24 0-56-14-56-58 0-91 93-157 202-157 122 0 213 91 213 193 0 82-63 160-167 181z" glyph-name="three" horiz-adv-x="500" unicode="3" vert-adv-y="500"/><glyph d="M294 165V78c0-36-2-47-76-47h-21V0c41 3 93 3 135 3s95 0 136-3v31h-21c-74 0-76 11-76 47v87h100v31H371v455c0 20 0 26-16 26-9 0-12 0-20-12L28 196v-31h266zm6 31H56l244 373V196z" glyph-name="four" horiz-adv-x="500" unicode="4" vert-adv-y="500"/><glyph d="M224 353v259c0 23 0 35 22 38 10 2 39 2 59 2 90 0 202-4 202-149 0-69-24-150-172-150H224zm211-13c97 24 175 85 175 163 0 96-114 180-261 180H35v-31h24c77 0 79-11 79-47V78c0-36-2-47-79-47H35V0c36 3 107 3 146 3s110 0 146-3v31h-24c-77 0-79 11-79 47v253h115c16 0 58 0 93-34 38-36 38-67 38-134 0-65 0-105 41-143 41-36 96-42 126-42 78 0 95 82 95 110 0 6 0 17-13 17-11 0-11-9-12-16-6-71-41-89-66-89-49 0-57 51-71 144l-13 80c-18 64-67 97-122 116z" glyph-name="R" horiz-adv-x="736" unicode="R" vert-adv-y="736"/></font></defs><style>text.f0,text.f1,text.f2{font-family:cmbx10;font-size:9.96264px}text.f1,text.f2{font-family:cmsy10}text.f2{font-family:cmr10}</style><g id="page1"><path d="M-44.754 99.863v-.199m0 .2V26.73m0-23.812v-73.133m0 .199v-.199h170.082l-.141.141m.141-.141L94.035-38.922M71.582-16.473L40.289 14.824m.14-.14l-.14.14.14.14m-.14-.14l31.293 31.297m22.453 22.45l31.293 31.292m-.141-.14l.141.14" fill="none" stroke="#000" stroke-width=".4"/><path d="M-56.656 14.824c0 6.574 5.328 11.906 11.902 11.906 6.578 0 11.906-5.332 11.906-11.906 0-6.574-5.328-11.906-11.906-11.906-6.574 0-11.902 5.332-11.902 11.906z" fill="none" stroke="#000" stroke-miterlimit="10.037" stroke-width=".8"/><text class="f1" transform="rotate(180 -42.815 53.593)" x="-44.752" y="99.865">−</text><text class="f2" transform="rotate(180 -42.815 58.606)" x="-44.752" y="99.865">+</text><path d="M67.375-20.68l22.449-22.449 8.418 8.418-22.449 22.449z" fill="none" stroke="#000" stroke-miterlimit="10.037" stroke-width=".8"/><path d="M126.914-70.215a1.585 1.585 0 1 0-3.172 0 1.587 1.587 0 0 0 3.172 0z"/><path d="M126.914-70.215a1.585 1.585 0 1 0-3.172 0 1.587 1.587 0 0 0 3.172 0z" fill="none" stroke="#000" stroke-miterlimit="10.037" stroke-width=".4"/><path d="M41.875 14.824a1.587 1.587 0 1 0-3.174.002 1.587 1.587 0 0 0 3.174-.002z"/><path d="M41.875 14.824a1.587 1.587 0 1 0-3.174.002 1.587 1.587 0 0 0 3.174-.002z" fill="none" stroke="#000" stroke-miterlimit="10.037" stroke-width=".4"/><text class="f2" transform="rotate(-45.001 -111.02 -119.1)" x="-44.752" y="99.865">R<tspan x="-37.418">1</tspan></text><path d="M89.824 72.777L67.375 50.328l8.418-8.418 22.449 22.45z" fill="none" stroke="#000" stroke-miterlimit="10.037" stroke-width=".8"/><path d="M41.875 14.824a1.587 1.587 0 1 0-3.174.002 1.587 1.587 0 0 0 3.174-.002z"/><path d="M41.875 14.824a1.587 1.587 0 1 0-3.174.002 1.587 1.587 0 0 0 3.174-.002z" fill="none" stroke="#000" stroke-miterlimit="10.037" stroke-width=".4"/><path d="M126.914 99.863a1.587 1.587 0 1 0-3.17.002 1.587 1.587 0 0 0 3.17-.002z"/><path d="M126.914 99.863a1.587 1.587 0 1 0-3.17.002 1.587 1.587 0 0 0 3.17-.002z" fill="none" stroke="#000" stroke-miterlimit="10.037" stroke-width=".4"/><text class="f2" transform="rotate(45.001 86.518 230.57)" x="-44.752" y="99.865">R<tspan x="-37.418">3</tspan></text><path d="M210.371 14.824l-.144-.14m.144.14l-31.297-31.297m-22.449-22.449l-31.297-31.293m.141.141l-.141-.141" fill="none" stroke="#000" stroke-miterlimit="10.037" stroke-width=".4"/><path d="M160.555-42.848l22.449 22.45-7.859 7.855-22.45-22.449zM163.641-12.262l7.597-27.867" fill="none" stroke="#000" stroke-miterlimit="10.037" stroke-width=".8"/><path d="M172.059-43.129c-.59 1.18-1.707 3.297-3.239 4.488 1.715-.875 2.715-.601 3.75 1.024-.714-1.809-.601-4.196-.511-5.512zM211.957 14.824a1.587 1.587 0 1 0-3.174.003 1.587 1.587 0 0 0 3.174-.003z"/><path d="M211.957 14.824a1.587 1.587 0 1 0-3.174.003 1.587 1.587 0 0 0 3.174-.003z" fill="none" stroke="#000" stroke-miterlimit="10.037" stroke-width=".4"/><path d="M126.914-70.215a1.585 1.585 0 1 0-3.172 0 1.587 1.587 0 0 0 3.172 0z"/><path d="M126.914-70.215a1.585 1.585 0 1 0-3.172 0 1.587 1.587 0 0 0 3.172 0z" fill="none" stroke="#000" stroke-miterlimit="10.037" stroke-width=".4"/><text class="f2" transform="rotate(45.001 187.222 272.28)" x="-44.752" y="99.865">R<tspan x="-37.418">2</tspan></text><path d="M125.328 99.863l.141-.14m-.141.14l31.297-31.293m22.449-22.449l31.297-31.297m-.144.14l.144-.14" fill="none" stroke="#000" stroke-miterlimit="10.037" stroke-width=".4"/><path d="M183.281 50.328l-22.449 22.45-8.418-8.419 22.449-22.449z" fill="none" stroke="#000" stroke-miterlimit="10.037" stroke-width=".8"/><path d="M126.914 99.863a1.587 1.587 0 1 0-3.17.002 1.587 1.587 0 0 0 3.17-.002z"/><path d="M126.914 99.863a1.587 1.587 0 1 0-3.17.002 1.587 1.587 0 0 0 3.17-.002z" fill="none" stroke="#000" stroke-miterlimit="10.037" stroke-width=".4"/><path d="M211.957 14.824a1.587 1.587 0 1 0-3.174.003 1.587 1.587 0 0 0 3.174-.003z"/><path d="M211.957 14.824a1.587 1.587 0 1 0-3.174.003 1.587 1.587 0 0 0 3.174-.003z" fill="none" stroke="#000" stroke-miterlimit="10.037" stroke-width=".4"/><text class="f2" transform="rotate(-45.001 .222 -165.177)" x="-44.752" y="99.865">R<tspan x="-37.418">4</tspan></text><path d="M125.328 99.863H-44.754M40.29 14.824h.198m-.199 0h73.133m23.812 0h73.137m-.199 0h.199M113.422 14.824h1.191m21.43 0h1.191" fill="none" stroke="#000" stroke-miterlimit="10.037" stroke-width=".4"/><path d="M136.043 14.824c0-5.918-4.797-10.715-10.715-10.715s-10.715 4.797-10.715 10.715 4.797 10.715 10.715 10.715 10.715-4.797 10.715-10.715z" fill="none" stroke="#000" stroke-miterlimit="10.037" stroke-width=".8"/><path d="M113.422 26.73l21.277-21.277" fill="none" stroke="#000" stroke-miterlimit="10.037" stroke-width=".4"/><path d="M137.234 2.918c-.891.613-2.535 1.41-3.875 1.762l2.113 2.113c.352-1.34 1.153-2.98 1.762-3.875"/><text class="f0" transform="translate(165.67 -81.623)" x="-44.752" y="99.865">V</text></g></svg>
